X:382
T:Kinrara
R:Strathspey
B:The Athole Collection
M:C
L:1/8
K:B_
F|B>cB>d Fd c<C C>A|B>cB>d F<B G/F/E/D/|
E<g f>e d<BB:|
f|d>f e/d/c/B/ b>Be>g|f>g e/d/c/B/ d<c cd/e/|f>Bd>B g>Be>g|
F>B cB/c/ dd|fg/a/ b>B g>Bf>B|e>cd>B A>cc>d|
B<F Ge d<B~B||
